X:1
T:Title
%%score { ( 1 3 ) | ( 2 4 ) }
L:1/8
M:4/4
K:Eb
V:1 treble nm="Grand Piano"
V:3 treble 
V:2 bass 
V:4 bass 
V:1
 z4 z2[Q:1/4=100] E>F | G>G G>G G>_G =G>[FA] | B6 z2 | [Ad]2 [Ac]2 [Bd]2 .[CAc]2 | [EGB]6 E>F | %5
 G>G G>G G>_G =G>[FA] | B6 z2 | d2 c2 d2 c2 |[M:3/4] [DB]6 |[M:1/4] c>d | %10
[M:4/4] e2- [Ge-]>[Ge-] [Ge]2 G>[B,FA] | B6 z2 | B4 z2 B2 | z2 E2 E2 [GB]B | c2 c2 c2 cc | %15
 d2 d2 e2 dc | B3 B B>B c>d |[M:3/4] [Ge]6 |] %18
V:2
 z4 z2 [E,G,]>[E,A,E] | [E,B,E]>[E,B,E] [E,B,E]>[E,B,E] [E,B,E]>[E,=A,E] [E,B,E]>[E,B,] | %2
 [E,B,]2 [E,G,]>[E,A,] [E,B,]2 [E,B,]>[E,B,] | [B,,B,]2 [B,,B,]2 [B,,B,]2 z D | %4
 E,6 [E,G,]>[E,A,E] | [E,B,E]>[E,B,E] [E,B,E]>[E,B,E] [E,B,E]>[E,=A,E] [E,B,E]>[E,B,] | %6
 [E,B,]2 [E,G,]>[E,A,] [E,B,]2 [E,B,]>[E,B,] | [F,B,F]2 [F,=A,F]2 [F,B,F]2 [F,A,E]2 | %8
[M:3/4] [B,,B,]6 |[M:1/4][K:treble] [B,A]>[B,A] | %10
[M:4/4][K:bass] [E,B,]2 [E,B,]>[E,B,] [E,B,]2 [E,B,E]>E, | E,2 E,>E, E,2 E,>G, | %12
 F,2 z[K:treble] B z z/ c/[K:bass] B,,2 | [E,B,E]2 [E,B,]2 [E,B,]2 [E,B,][K:treble][G,B,E] | %14
 [A,E]2 [G,B,=E]2 [F,A,F]2 [F,=A,F][F,A,F] | [B,F]2 [A,B,F]2 [G,B,E]2 [A,CE][A,EA] | %16
 [B,EG]3 [B,EG] [B,DA]>[B,DA] [B,A]>[B,A] |[M:3/4][K:bass] [E,B,]6 |] %18
V:3
 x8 | x8 | G2 E>F G2 [GB]>[Ge] | x8 | x8 | x8 | G2 E>F G2 [GB]>[Ge] | x8 |[M:3/4] x6 |[M:1/4] x2 | %10
[M:4/4] G2 z2 z4 | [B,G]2 [A,F]>[CA] [B,G]2 [B,GB]>[B,EB] | [DA]2 [DA]2 [DAB]2 [B,D]->[B,DA] | %13
 G6 z2 | x8 | x8 | x8 |[M:3/4] x6 |] %18
V:4
 x8 | x8 | x8 | z4 z2 B,,2 | x8 | x8 | x8 | x8 |[M:3/4] x6 |[M:1/4][K:treble] x2 | %10
[M:4/4][K:bass] x8 | x8 | z2 B,,2[K:treble] F,2[K:bass] z2 | x7[K:treble] x | x8 | x8 | x8 | %17
[M:3/4][K:bass] x6 |] %18

